X:26
T:Coleman's Cross
Z: id:dc-jig-20
M:6/8
L:1/8
K:E Dorian
d|B2e efe|B2e efe|A2d ded|A2d ded|!
B2e efe|B2e ega|bag agf|gee e2:|!
f|gdB G3|FDF AFD|GBd efg|fdc def|!
gdB G3|FDF AFD|GBd efg|fdc d2:|!

